images/icon-why-us-1.svg

<svg width="48" height="49" viewBox="0 0 48 49" fill="none" xmlns="http://www.w3.org/2000/svg">
<g clip-path="url(#clip0_107_954)">
<path fill-rule="evenodd" clip-rule="evenodd" d="M16.771 5.36149C15.3671 5.74868 14.2827 6.89486 13.9726 8.3194C13.8902 8.69786 13.87 10.2569 13.897 14.1788C13.9372 20.0307 13.9243 19.8866 14.5286 21.2195C15.042 22.3518 16.1832 23.7125 17.039 24.2129C17.2065 24.3109 17.3436 24.4137 17.3436 24.4415C17.3436 24.4692 17.0589 24.5906 16.7108 24.7113C12.7616 26.0808 9.5984 29.3106 8.2423 33.3583C7.74721 34.836 7.58887 35.8385 7.52887 37.8741L7.47421 39.7256H6.96721C6.55387 39.7256 6.41755 39.6831 6.23005 39.4955L5.9999 39.2654V26.9756V14.6859L6.23005 14.4558L6.46012 14.2256H9.1874H11.9147L12.1447 13.9955C12.4492 13.6911 12.4492 13.2602 12.1447 12.9558L11.9147 12.7256H9.17906C7.30537 12.7256 6.32193 12.7616 6.05765 12.8396C5.51305 13.0006 4.75846 13.7711 4.60846 14.3194C4.51912 14.6459 4.49915 17.5642 4.51996 27.2335L4.54677 39.7256H2.50349H0.460117L0.217117 39.9686C-0.00938302 40.1951 -0.0223205 40.2542 0.0268045 40.8396C0.155336 42.3727 1.06724 43.631 2.37037 44.0734C2.77912 44.2121 4.69781 44.2256 23.9883 44.2256C41.8148 44.2256 45.2261 44.205 45.5917 44.0951C46.5413 43.8092 47.5487 42.7326 47.8037 41.7309C47.8678 41.4788 47.9593 41.1993 48.007 41.1098C48.099 40.9368 48.1302 40.0328 48.0411 40.1219C48.0122 40.1509 47.8876 40.0736 47.7641 39.9501C47.5411 39.7271 47.5267 39.7256 45.4963 39.7256H43.453L43.4787 32.4581L43.5044 25.1904L43.272 24.958C42.9653 24.6513 42.5354 24.6504 42.2301 24.9558L41.9999 25.1859V32.2256V39.2654L41.7697 39.4955L41.5397 39.7256H38.0322H34.5247L34.4727 37.7335C34.4009 34.9843 34.0582 33.4826 33.0365 31.4414C31.4764 28.3246 28.5203 25.7417 25.3358 24.7127C24.962 24.5919 24.6561 24.4701 24.6561 24.4421C24.6561 24.414 24.7932 24.3109 24.9608 24.2129C25.8166 23.7125 26.9578 22.3518 27.4712 21.2195C28.0769 19.8836 28.063 20.0406 28.1005 14.1025C28.1309 9.29027 28.1175 8.62268 27.9809 8.14933C27.5645 6.70624 26.5841 5.7304 25.1718 5.35305C24.5208 5.17915 17.4064 5.18636 16.771 5.36149ZM16.8977 6.88165C16.3617 7.0714 15.713 7.73561 15.5251 8.28705C15.4058 8.63702 15.3749 9.13933 15.3749 10.7267V12.7256H21.0048H26.6347L26.6063 10.5928C26.5745 8.19527 26.5371 8.03533 25.8516 7.37018C25.2043 6.74205 25.0717 6.72471 20.9598 6.73305C17.9497 6.73915 17.2256 6.76558 16.8977 6.88165ZM20.4801 8.0808C20.3223 8.23858 20.2499 8.4154 20.2499 8.6433C20.2499 8.9614 20.2356 8.97565 19.9176 8.97565C19.4881 8.97565 19.1249 9.31933 19.1249 9.72565C19.1249 10.132 19.4881 10.4756 19.9176 10.4756C20.2356 10.4756 20.2499 10.4899 20.2499 10.808C20.2499 11.2375 20.5936 11.6006 20.9999 11.6006C21.4062 11.6006 21.7499 11.2375 21.7499 10.808C21.7499 10.4899 21.7641 10.4756 22.0822 10.4756C22.5117 10.4756 22.8749 10.132 22.8749 9.72565C22.8749 9.31933 22.5117 8.97565 22.0822 8.97565C21.7641 8.97565 21.7499 8.9614 21.7499 8.6433C21.7499 8.21383 21.4062 7.85065 20.9999 7.85065C20.8173 7.85065 20.6251 7.93568 20.4801 8.0808ZM33.0201 8.34349C32.6059 8.47624 31.939 9.07699 31.7227 9.51227C31.5622 9.83543 31.542 10.2055 31.4923 13.7569C31.4416 17.3733 31.4233 17.7004 31.2323 18.3975C30.8245 19.8863 30.1581 20.9427 29.2104 21.6029C28.6011 22.0274 28.4253 22.3503 28.5886 22.7447C28.6499 22.8927 28.8047 23.0615 28.9326 23.1197C29.2676 23.2724 45.9094 23.2697 46.4195 23.1168C46.9338 22.9628 47.5192 22.4259 47.7773 21.8715L47.998 21.3975V15.7256V10.0538L47.7773 9.57977C47.5192 9.02543 46.9338 8.48852 46.4195 8.33449C45.9357 8.18955 33.4743 8.1979 33.0201 8.34349ZM33.2391 9.9468L33.0179 10.1679L32.9738 13.9546C32.9346 17.3397 32.9097 17.8257 32.7396 18.5381C32.4938 19.5676 32.1316 20.4644 31.6785 21.1655L31.3165 21.7256H38.6781H46.0397L46.2697 21.4955L46.4999 21.2654V15.7256V10.1859L46.2697 9.9558L46.0397 9.72565H39.7499H33.4601L33.2391 9.9468ZM36.2301 12.9558C36.0849 13.1008 35.9999 13.293 35.9999 13.4756C35.9999 13.6583 36.0849 13.8505 36.2301 13.9955L36.4601 14.2256H39.7499H43.0397L43.2697 13.9955C43.4149 13.8505 43.4999 13.6583 43.4999 13.4756C43.4999 13.293 43.4149 13.1008 43.2697 12.9558L43.0397 12.7256H39.7499H36.4601L36.2301 12.9558ZM15.3749 16.5544C15.3749 18.5666 15.4001 18.9816 15.5601 19.6073C15.8352 20.6831 16.2447 21.383 17.1058 22.2491C17.9782 23.1266 18.7985 23.5881 19.9353 23.841C22.5821 24.4299 25.451 22.6921 26.3657 19.9458C26.5501 19.392 26.5723 19.0966 26.6037 16.7803L26.6383 14.2256H21.0066H15.3749V16.5544ZM36.2301 17.4558C36.0849 17.6008 35.9999 17.793 35.9999 17.9756C35.9999 18.1583 36.0849 18.3505 36.2301 18.4955L36.4601 18.7256H38.9999H41.5397L41.7697 18.4955C41.9149 18.3505 41.9999 18.1583 41.9999 17.9756C41.9999 17.793 41.9149 17.6008 41.7697 17.4558L41.5397 17.2256H38.9999H36.4601L36.2301 17.4558ZM19.7811 25.5314C19.6522 25.5551 19.2663 25.6187 18.9234 25.6726L18.3001 25.7707L18.0106 26.4182C17.7756 26.9437 17.0624 29.1423 17.0624 29.3411C17.0624 29.3696 17.1785 29.4215 17.3202 29.4565C18.0345 29.6329 18.8442 30.3909 19.2441 31.2572C19.4442 31.691 19.4542 31.8371 19.4824 34.7319L19.5116 37.7537L19.2757 37.9897C19.0679 38.1974 18.9602 38.2256 18.3749 38.2256C17.7941 38.2256 17.6811 38.1966 17.4801 37.9955C17.1756 37.6911 17.1756 37.2602 17.4801 36.9558C17.6066 36.8292 17.7754 36.7256 17.8551 36.7256C17.9818 36.7256 17.9996 36.4411 17.9978 34.4522C17.9961 32.4426 17.9757 32.1353 17.8227 31.8038C17.2956 30.6619 15.7586 30.3638 14.8248 31.2223C14.3042 31.7009 14.2542 31.9826 14.252 34.4522C14.2502 36.4411 14.268 36.7256 14.3947 36.7256C14.4744 36.7256 14.6432 36.8292 14.7697 36.9558C15.0742 37.2602 15.0742 37.6911 14.7697 37.9955C14.5687 38.1966 14.4557 38.2256 13.8749 38.2256C13.2896 38.2256 13.1819 38.1974 12.9741 37.9897L12.7382 37.7537L12.7674 34.7319C12.7954 31.8551 12.8066 31.6887 13.0017 31.2663C13.4305 30.3379 14.0843 29.7411 15.0214 29.4226C15.4519 29.2763 15.5169 29.2181 15.6172 28.8904C15.6791 28.6881 15.8638 28.0859 16.0275 27.5523C16.1912 27.0187 16.3038 26.5608 16.2778 26.5347C16.2517 26.5088 15.8893 26.6693 15.4723 26.8915C13.2346 28.0838 11.305 30.1339 10.1783 32.5163C9.35306 34.2611 9.0013 35.987 9.00046 38.296L8.9999 39.7256H21.0141H33.0284L32.975 37.921C32.8963 35.2624 32.5731 33.8726 31.585 31.9444C30.9946 30.7922 30.0975 29.6072 29.1478 28.7249C28.4074 28.037 27.1245 27.1011 27.0391 27.1865C27.0155 27.2101 27.0986 27.6525 27.2238 28.1696C27.349 28.6868 27.5018 29.422 27.5633 29.8034C27.6751 30.4958 27.6758 30.4971 28.0673 30.6591C29.0378 31.0605 29.6271 31.9155 29.6984 33.0259C29.7361 33.6129 29.7087 33.7713 29.4824 34.2755C28.5097 36.4429 25.5003 36.4728 24.4693 34.3252C24.1631 33.6874 24.1556 32.7354 24.4517 32.085C24.7128 31.5116 25.299 30.8962 25.7991 30.6707C26.1715 30.5027 26.172 30.5018 26.1121 30.075C25.9992 29.2718 25.5997 27.7354 25.305 26.971C24.9666 26.0938 24.9191 26.0608 23.5404 25.7458C22.7601 25.5676 20.3361 25.4293 19.7811 25.5314ZM26.3317 32.1023C25.7736 32.4486 25.5924 33.1241 25.8963 33.7249C26.0674 34.0631 26.1969 34.1818 26.5546 34.3282C26.9957 34.5086 27.0041 34.5086 27.4407 34.3276C27.7323 34.2069 27.9429 34.0398 28.0628 33.8345C28.4124 33.2359 28.2132 32.3731 27.6592 32.0866C27.3009 31.9013 26.643 31.9091 26.3317 32.1023ZM0.0280232 40.6631C0.0280232 40.9467 0.0455545 41.0627 0.0670232 40.921C0.088492 40.7792 0.088492 40.5471 0.0670232 40.4053C0.0455545 40.2636 0.0280232 40.3796 0.0280232 40.6631ZM1.59365 41.3088C1.59365 41.4951 2.2244 42.3131 2.52159 42.5122L2.84015 42.7256H23.9716C47.0153 42.7256 45.3257 42.7666 45.8564 42.1949C46.0788 41.9554 46.4062 41.4089 46.4062 41.2772C46.4062 41.2488 36.3233 41.2256 23.9999 41.2256C11.0282 41.2256 1.59365 41.2606 1.59365 41.3088Z" fill="#1E84B5"/>
<path fill-rule="evenodd" clip-rule="evenodd" d="M33.02 8.34353C32.6058 8.47628 31.9389 9.07703 31.7226 9.51231C31.5621 9.83546 31.5419 10.2055 31.4922 13.7569C31.4415 17.3733 31.4232 17.7004 31.2322 18.3976C30.8244 19.8863 30.158 20.9428 29.2103 21.603C28.601 22.0275 28.4252 22.3503 28.5885 22.7447C28.6498 22.8928 28.8046 23.0615 28.9325 23.1197C29.2675 23.2725 45.9093 23.2697 46.4194 23.1168C46.9337 22.9628 47.5191 22.4259 47.7772 21.8716L47.9979 21.3976V15.7257V10.0538L47.7772 9.57981C47.5191 9.02546 46.9337 8.48856 46.4194 8.33453C45.9356 8.18959 33.4742 8.19793 33.02 8.34353ZM33.239 9.94684L33.0178 10.1679L32.9737 13.9547C32.9345 17.3398 32.9096 17.8258 32.7395 18.5382C32.4937 19.5677 32.1315 20.4645 31.6784 21.1655L31.3164 21.7257H38.678H46.0396L46.2697 21.4955L46.4998 21.2655V15.7257V10.1859L46.2697 9.95584L46.0396 9.72568H39.7498H33.46L33.239 9.94684ZM36.23 12.9558C36.0848 13.1009 35.9998 13.2931 35.9998 13.4757C35.9998 13.6583 36.0848 13.8505 36.23 13.9955L36.46 14.2257H39.7498H43.0396L43.2697 13.9955C43.4148 13.8505 43.4998 13.6583 43.4998 13.4757C43.4998 13.2931 43.4148 13.1009 43.2697 12.9558L43.0396 12.7257H39.7498H36.46L36.23 12.9558ZM36.23 17.4558C36.0848 17.6009 35.9998 17.7931 35.9998 17.9757C35.9998 18.1583 36.0848 18.3505 36.23 18.4955L36.46 18.7257H38.9998H41.5396L41.7697 18.4955C41.9148 18.3505 41.9998 18.1583 41.9998 17.9757C41.9998 17.7931 41.9148 17.6009 41.7697 17.4558L41.5396 17.2257H38.9998H36.46L36.23 17.4558Z" fill="#0E384C"/>
</g>
<defs>
<clipPath id="clip0_107_954">
<rect width="48" height="48" fill="white" transform="translate(0 0.725586)"/>
</clipPath>
</defs>
</svg>

<svg xmlns="http://www.w3.org/2000/svg" width="48" height="49" fill="none" viewBox="0 0 48 49"><g fill-rule="evenodd" clip-path="url(#a)" clip-rule="evenodd"><path fill="#1e84b5" d="M16.771 5.361a3.95 3.95 0 0 0-2.798 2.958c-.083.379-.103 1.938-.076 5.86.04 5.852.027 5.708.632 7.04.513 1.133 1.654 2.493 2.51 2.994.167.098.305.2.305.229 0 .027-.285.149-.633.27-3.95 1.369-7.113 4.599-8.469 8.646-.495 1.478-.653 2.48-.713 4.516l-.055 1.852h-.507c-.413 0-.55-.043-.737-.23l-.23-.23v-24.58l.23-.23.23-.23h5.455l.23-.23a.706.706 0 0 0 0-1.04l-.23-.23H9.179c-1.874 0-2.857.036-3.121.114-.545.16-1.3.931-1.45 1.48-.089.326-.109 3.244-.088 12.914l.027 12.492H.46l-.243.243c-.226.226-.24.285-.19.87.128 1.534 1.04 2.792 2.343 3.234.41.14 2.328.153 21.618.153 17.827 0 21.238-.021 21.604-.13.95-.287 1.957-1.363 2.212-2.365.064-.252.155-.532.203-.621.092-.173.123-1.077.034-.988-.029.029-.153-.048-.277-.172-.223-.223-.237-.224-2.268-.224h-2.043l.026-7.268.025-7.268-.232-.232c-.307-.307-.737-.308-1.042-.002l-.23.23v14.08l-.23.23-.23.23h-7.015l-.052-1.992c-.072-2.75-.415-4.251-1.437-6.293-1.56-3.116-4.516-5.7-7.7-6.728-.374-.121-.68-.243-.68-.27 0-.029.137-.132.305-.23.856-.5 1.997-1.861 2.51-2.994.606-1.335.592-1.178.63-7.117.03-4.812.017-5.48-.12-5.953-.417-1.443-1.397-2.419-2.81-2.796-.65-.174-7.765-.167-8.4.008m.127 1.52c-.536.19-1.185.855-1.373 1.406-.12.35-.15.852-.15 2.44v1.999h11.26l-.029-2.133c-.032-2.398-.069-2.558-.754-3.223-.648-.628-.78-.645-4.892-.637-3.01.006-3.734.033-4.062.149m3.582 1.2a.75.75 0 0 0-.23.562c0 .318-.014.333-.332.333-.43 0-.793.343-.793.75s.363.75.793.75c.318 0 .332.014.332.332 0 .43.344.793.75.793s.75-.364.75-.793c0-.318.014-.332.332-.332.43 0 .793-.344.793-.75s-.363-.75-.793-.75c-.318 0-.332-.015-.332-.333 0-.43-.344-.792-.75-.792a.76.76 0 0 0-.52.23m12.54.262c-.414.133-1.081.734-1.297 1.17-.16.322-.181.693-.23 4.244-.051 3.616-.07 3.943-.26 4.64-.409 1.49-1.075 2.546-2.023 3.206-.609.424-.785.747-.621 1.142a.8.8 0 0 0 .344.375c.335.152 16.976.15 17.487-.003.514-.154 1.1-.691 1.357-1.245l.221-.474V10.054l-.22-.474c-.259-.555-.844-1.091-1.358-1.246-.484-.144-12.946-.136-13.4.01m.22 1.604-.222.22-.044 3.788c-.04 3.385-.064 3.87-.234 4.583-.246 1.03-.608 1.926-1.062 2.628l-.361.56H46.04l.23-.23.23-.23v-11.08l-.23-.23-.23-.23H33.46zm2.99 3.009a.76.76 0 0 0-.23.52.76.76 0 0 0 .23.52l.23.23h6.58l.23-.23a.76.76 0 0 0 .23-.52.76.76 0 0 0-.23-.52l-.23-.23h-6.58zm-20.855 3.598c0 2.013.025 2.428.185 3.053.275 1.076.685 1.776 1.546 2.642.872.878 1.692 1.34 2.83 1.592 2.646.589 5.515-1.149 6.43-3.895.184-.554.206-.85.238-3.166l.034-2.554H15.375zm20.855.902a.76.76 0 0 0-.23.52c0 .182.085.375.23.52l.23.23h5.08l.23-.23a.76.76 0 0 0 .23-.52.76.76 0 0 0-.23-.52l-.23-.23h-5.08zM19.781 25.53c-.129.024-.515.088-.858.142l-.623.098-.29.647c-.234.526-.948 2.724-.948 2.923 0 .029.116.08.258.115.715.177 1.524.935 1.924 1.801.2.434.21.58.238 3.475l.03 3.022-.236.236c-.208.207-.316.236-.901.236-.58 0-.694-.03-.895-.23a.706.706 0 0 1 0-1.04c.127-.127.295-.23.375-.23.127 0 .145-.285.143-2.274-.002-2.01-.022-2.317-.175-2.648-.527-1.142-2.064-1.44-2.998-.582-.52.479-.57.76-.573 3.23-.002 1.99.016 2.274.143 2.274.08 0 .248.103.375.23a.706.706 0 0 1 0 1.04c-.201.2-.314.23-.895.23-.585 0-.693-.029-.9-.236l-.237-.236.03-3.022c.027-2.877.039-3.043.234-3.466.428-.928 1.082-1.525 2.02-1.843.43-.147.495-.205.595-.533l.41-1.338c.164-.533.277-.991.25-1.017-.025-.026-.388.134-.805.357-2.237 1.192-4.167 3.242-5.294 5.624-.825 1.745-1.177 3.471-1.178 5.78v1.43h24.028l-.053-1.805c-.079-2.659-.402-4.048-1.39-5.977a12.2 12.2 0 0 0-2.437-3.22c-.74-.687-2.023-1.623-2.109-1.538-.024.024.06.466.185.984.125.517.278 1.252.34 1.633.111.693.112.694.503.856.97.402 1.56 1.257 1.631 2.367.038.587.01.745-.216 1.25-.972 2.167-3.982 2.197-5.013.05-.306-.639-.313-1.59-.017-2.241.26-.573.847-1.189 1.347-1.414.373-.168.373-.17.313-.596-.113-.803-.512-2.34-.807-3.104-.338-.877-.386-.91-1.765-1.225-.78-.178-3.204-.317-3.759-.215m6.55 6.571c-.557.347-.739 1.022-.435 1.623.171.338.3.457.659.603.44.18.45.18.886 0 .291-.121.502-.288.622-.494.35-.598.15-1.46-.404-1.747-.358-.186-1.016-.178-1.327.015M.029 40.663c0 .284.018.4.039.258a2 2 0 0 0 0-.516c-.021-.141-.039-.025-.039.258m1.566.646c0 .186.63 1.004.928 1.203l.318.214h21.132c23.043 0 21.354.04 21.884-.531.223-.24.55-.786.55-.918 0-.028-10.083-.051-22.406-.051-12.972 0-22.406.035-22.406.083"/><path fill="#0e384c" d="M33.02 8.344c-.414.132-1.081.733-1.297 1.168-.16.323-.181.694-.23 4.245-.051 3.616-.07 3.943-.26 4.64-.409 1.49-1.075 2.546-2.023 3.206-.609.424-.785.747-.622 1.142a.8.8 0 0 0 .345.375c.334.152 16.976.15 17.486-.003.515-.154 1.1-.691 1.358-1.245l.22-.474V10.054l-.22-.474c-.258-.555-.843-1.091-1.358-1.245-.483-.145-12.945-.137-13.399.009m.219 1.603-.221.22-.044 3.788c-.04 3.385-.064 3.87-.234 4.583-.246 1.03-.608 1.927-1.062 2.628l-.362.56H46.04l.23-.23.23-.23v-11.08l-.23-.23-.23-.23H33.46zm2.991 3.009a.76.76 0 0 0-.23.52.76.76 0 0 0 .23.52l.23.23h6.58l.23-.23a.76.76 0 0 0 .23-.52.76.76 0 0 0-.23-.52l-.23-.23h-6.58zm0 4.5a.76.76 0 0 0-.23.52c0 .182.085.375.23.52l.23.23h5.08l.23-.23a.76.76 0 0 0 .23-.52.76.76 0 0 0-.23-.52l-.23-.23h-5.08z"/></g><defs><clipPath id="a"><path fill="#fff" d="M0 .726h48v48H0z"/></clipPath></defs></svg>
